X:1
T:Christ Is Risen
T:Christ Is Risen
T:Henry Fleetwood Sheppard
T:Marcus Lane, 1867
T:Public Domain Courtesy of the Cyber Hymnal™
T:Public Domain Courtesy of the Cyber Hymnal™
C:Henry Fleetwood Sheppard
Z:Public Domain
Z:Courtesy of the Cyber Hymnal™
%%score ( 1 2 ) ( 3 4 )
L:1/8
Q:1/4=105
M:4/4
K:F
V:1 treble 
V:2 treble 
V:3 bass 
V:4 bass 
V:1
 [FA]3 [FA] [EA]2 [EG]2 |!>(! [EG]2!>)! [DF]2!>(! [EB]2!>)! [FA]2 | [Fd]2 [Ec]2 F3!<(! [FG] | %3
w: 1.~All the doubt- ing|and de- ject- ion|Of our tremb- ling|
w: 2.~Christ is ris- en!|hence- forth nev- er|Death or hell shall|
 [FA]2 [FG]2 [Ec]4!<)! |!p! c3 (z A) [FG]2 [Fd]2 | [Fc]2 [FA]2 [FA]2 [FG]2 | %6
w: hearts have ceased;|’Tis * His day|* of res- ur-|
w: us en- thrall;|Be * with Christ,|* in Him for|
!f! [Ff]3 [FA] [Ac]3 [GB] | [EA]2 [EG]2 F4 |!p! [FA]3 [FA] [FA]2 [Ec]2 | [F=B]2 [FA]2 [FA]2 [FG]2 | %10
w: rect- ion, Let us|rise and keep|the feast. Grate- ful-|ly our hearts a-|
w: ev- er We have|tri- umphed o-|ver all. Death and|hell be- fore Him|
 [EG]2 [Gc]2 c3 (z d) |!f! [Ge]2 [Fd]2 [Ec]4 |!p! [Ed]3 [Ec] [Fc]2 [CA]2 | %13
w: dore Him, As *|* His light|once more ap- pears,|
w: bend- ing, He *|* doth rise|the vic- tor now;|
!<(! A3 (z G) [EG]2!<)!!>(! [DF]2 | [DF]3 [DG] [DA]2 [DB]2 | [DE]2 [DE]2 !fermata!D4 x!>)! | %16
w: Bow- * ing down|* in joy be-|fore Him, Ris-|
w: An- * gels on|* His steps at-|tend- ing, Glo-|
 [FA]3 [FA] [EA]2 [EG]2 |!>(! [EG]2!>)! [DF]2!>(! [EB]2!>)! [FA]2 | [Fd]2 [Ec]2 F3!<(! [FG] | %19
w: ing up from grief|and tears. Christ is|ris- en, al- le-|
w: ry round His wound-|ed brow. * *||
 [FA]2 [FG]2 [Ec]4!<)! |!p! c3 (z A) [FG]2 [Fd]2 | [Fc]2 [FA]2 [FA]2 [FG]2 | %22
w: lu- ia! Ris-|en * our vic-|* tor- ious head!|
w: |||
!f! [Ff]3 [FA] [Ac]3 [GB] | [EA]2 [EG]2 F4 |] %24
w: Sing His prais- es!|al- le- lu-|
w: ||
V:2
 x8 | x8 | x4 F3 x | x8 | F2 F2 x5 | x8 | x8 | x4 F4 | x8 | x8 | x4 E2 F2 x | x8 | x8 | C2 E2 x5 | %14
 x8 | x4 D4 x | x8 | x8 | x4 F3 x | x8 | F2 F2 x5 | x8 | x8 | x4 F4 |] %24
V:3
 [F,C]3 [F,C] [C,C]2 [C,B,]2 | [C,B,]2 [D,A,]2 [G,B,]2 [F,C]2 | [B,,B,]2 [C,G,]2 (F,G,)[G,=B,] x | %3
 [G,=B,]2 [G,B,]2 [C,C]4 | [F,A,]2 [A,C]2 [B,D]2 [B,,B,]2 x | [F,A,]2 [F,C]2 [D,=B,]2 [D,B,]2 | %6
 [_D,B,]3 [C,C] [B,,=D]3 [B,,D] | [C,C]2 [C,B,]2 [F,A,]4 | [D,A,]3 [D,A,] [D,A,]2 [A,,A,]2 | %9
 [D,F,]2 [F,C]2 [=B,,D]2 [B,,D]2 | [C,C]2 [E,G,]2 [A,C]2 [A,C]2 x | [G,C]2 [G,=B,]2 [C,C]4 | %12
 [C,B,]3 [C,B,] [F,A,]2 F,2 | [A,,E,]2 [C,A,]2 [D,B,]2 [D,A,]2 x | B,3 [G,B,] [F,A,]2 [G,D]2 | %15
 A,3 (z G,) !fermata![D,F,]4 | [F,C]3 [F,C] [C,C]2 [C,B,]2 | [C,B,]2 [D,A,]2 [G,B,]2 [F,C]2 | %18
 [B,,B,]2 [C,G,]2 (F,G, A,[G,=B,]) | [G,=B,]2 [G,B,]2 [C,C]4 | [F,A,]2 [A,C]2 [B,D]2 [B,,B,]2 x | %21
 [F,A,]2 [F,C]2 [D,=B,]2 [D,B,]2 | [_D,B,]3 [C,C] [B,,=D]3 [B,,D] | [C,C]2 [C,B,]2 [F,A,]4 |] %24
V:4
 x8 | x8 | x4 D,3 A, | x8 | x9 | x8 | x8 | x8 | x8 | x8 | x9 | x8 | x6 F,2 | x9 | B,3 x5 | %15
 A,2 A,,2 x5 | x8 | x8 | x4 D,3 x | x8 | x9 | x8 | x8 | x8 |] %24

